images/icons_important.svg

<svg xmlns="http://www.w3.org/2000/svg" viewBox="0 0 130.5 130.5" enable-background="new 0 0 130.5 130.5"><style type="text/css">.st0{fill:#FFFFFF;}</style><path class="st0" d="M65.2 0c-36 0-65.2 29.2-65.2 65.2s29.2 65.2 65.2 65.2 65.2-29.2 65.2-65.2-29.1-65.2-65.2-65.2zm-8.6 13.1h17.4v27l-3.8 42.4h-9.3l-4.2-42.4v-27zm17.4 104.3h-19.2v-20.7h20.8l-1.6 20.7z" id="Layer_1"/></svg>

<?xml version="1.0" encoding="utf-8"?>
<!-- Generator: Adobe Illustrator 19.1.0, SVG Export Plug-In . SVG Version: 6.00 Build 0)  -->
<svg version="1.1" xmlns="http://www.w3.org/2000/svg" xmlns:xlink="http://www.w3.org/1999/xlink" x="0px" y="0px"
	 viewBox="0 0 130.5 130.5" style="enable-background:new 0 0 130.5 130.5;" xml:space="preserve">
<style type="text/css">
	.st0{fill:#FFFFFF;}
</style>
<g id="Layer_1">
	<path class="st0" d="M65.2,0C29.2,0,0,29.2,0,65.2s29.2,65.2,65.2,65.2c36,0,65.2-29.2,65.2-65.2S101.3,0,65.2,0z M56.6,13.1H74v27
		l-3.8,42.4h-9.3l-4.2-42.4V13.1z M74,117.4H54.8V96.7h20.8L74,117.4z"/>
</g>
<g id="Layer_2">
</g>
</svg>
